X: 38663
T: Straits Of Sherkin, The
R: reel
M: 4/4
K: Dmajor
|:BA{A/}FEF2AB|{c/}AF{A/}EDFA{c/}B/c/d|fz {a/}edefBF|ABcdcBAd|
ABFEF2AB|{c/}AF{A/}EDFA{c/}B/c/d|fz{a/}edBDEF|AFEAFDDz:|
a3bfefa|bz{c'/}afeafe|f2edefBF|ABcdcBAd|
ba2bfefa|bz{c'/}afeafe|f2edBDEF|AFEAFDDz|
a3bfefa|bz{c'/}afeafe|f2edefBF|ABcdcBAd|
ABFEF2AB|AFEDFAB/c/d|fz{a/}edBDEF!coda!|AFEAFDDB|
BAFEF2AB|{c/}AF{A/}EDFA{c/}B/c/d|fz{a/}edefBF|AzcdcBAd|
dBFEF2AB|A2F/E/DFA{c/}B/c/d|fz{a/}edBDEF|AFEAFDEF|
ABFEF2AB|{c/}AF{A/}EDFA{c/}B/c/d|fz{a/}edefBF|AzcdGAcd|
ABFEF2AB|{c/}AF{A/}EDFA{c/}B/c/d|fz{a/}edBDEF|AFEAFd !slide!ab|
a3bfefa|bz{c'/}afeafe|f3ef~B3|A2 cdcBAd|
ba2bfefa|bz{c'/}afeafe|f2edBDEF|AFEAFDDz|
a3bfefa|bz{c'/}afeafe|f2edefBF|ABcdcBAd|
dBFEF2AB|{c/}AF{A/}EDFA{c/}B/c/d|fz{a/}edBDEF|AFEAFDED|
ABFEFz2B|ABFEFA{c/}B/c/d|fz {a/}edefBd-|dcBA2BFE|
ABFEF2AB|{c/}AF{A/}EDFA{c/}B/c/d|fded!slide!BDEF|AFEAFDDz|
BAFEF2AB|{c/}AF{A/}EDFA{c/}B/c/d|fz{a/}edefBF|A2cdcBAd|
B2FEF2AB|{c/}AF{A/}EDFA{c/}B/c/d|fz{a/}edBDEF|AFEAFDDz|
AFEAFDHD2|

